dist/assets/img/icons/social/github.svg

<svg width="19" height="20" viewBox="0 0 19 20" fill="none" xmlns="http://www.w3.org/2000/svg">
<path d="M-4.37114e-07 9.99951C-1.95608e-07 15.5245 4.36167 19.9995 9.74107 19.9995C14.0457 19.9995 17.6962 17.1345 18.9832 13.162C19.0749 12.662 18.7734 12.4787 18.5148 12.4787C18.2835 12.4787 17.6706 12.487 16.8585 12.4912C17.4459 15.2728 15.5517 15.8595 15.5517 15.8595C14.4274 16.3145 14.1267 16.972 14.1267 16.972C13.5228 17.8778 13.5352 16.902 13.5352 16.902C13.603 15.8978 14.5389 15.3703 14.5389 15.3703C16.0283 14.4787 15.5979 13.0295 15.3493 12.4578C14.719 12.3678 14.2903 12.1103 14.0466 11.8245C13.8029 14.0453 12.9652 16.3795 9.23304 16.3795C8.16988 16.3795 7.30085 15.992 6.61933 15.3503C6.37316 15.4628 5.3827 15.8003 4.04116 15.2628C4.04116 15.2628 3.78012 14.4253 5.03988 12.5128C4.82345 11.7128 4.71606 10.8628 4.7111 10.0128C4.71606 9.16284 4.82345 8.31284 5.03988 7.51284C3.78012 5.61284 4.04116 4.77535 4.04116 4.77535C5.3827 4.23785 6.37316 4.57535 6.61933 4.67535C7.30085 4.03785 8.16988 3.65035 9.23304 3.65035C12.9752 3.65035 13.7987 5.98784 14.0383 8.21284C14.3307 7.86284 14.928 7.53784 15.8408 7.53784C17.1444 7.53784 18.1918 7.55034 18.5082 7.55034C18.7635 7.55034 19.0683 7.37534 18.9708 6.86284C17.692 2.86201 14.0391 -0.000488895 9.74107 -0.000488707C4.36167 -0.000488472 -6.7851e-07 4.47701 -4.37114e-07 9.99951Z" fill="white"/>
</svg>

<svg width="19" height="20" fill="none" xmlns="http://www.w3.org/2000/svg"><path d="M0 10c0 5.524 4.362 10 9.741 10 4.305 0 7.955-2.866 9.242-6.838.092-.5-.21-.683-.468-.683-.232 0-.844.008-1.657.012.588 2.782-1.306 3.369-1.306 3.369-1.125.454-1.425 1.112-1.425 1.112-.604.906-.592-.07-.592-.07.068-1.004 1.004-1.532 1.004-1.532 1.49-.891 1.059-2.34.81-2.912-.63-.09-1.059-.348-1.302-.633-.244 2.22-1.082 4.555-4.814 4.555a3.704 3.704 0 01-2.614-1.03c-.246.113-1.236.45-2.578-.087 0 0-.26-.838.999-2.75a9.844 9.844 0 01-.329-2.5c.005-.85.112-1.7.329-2.5-1.26-1.9-.999-2.738-.999-2.738 1.342-.537 2.332-.2 2.578-.1A3.72 3.72 0 019.233 3.65c3.742 0 4.566 2.338 4.805 4.563.293-.35.89-.675 1.803-.675 1.303 0 2.35.012 2.667.012.256 0 .56-.175.463-.687C17.692 2.862 14.039 0 9.74 0 4.361 0 0 4.477 0 10z" fill="#fff"/></svg>
